src/assets/icons/baseball.svg

<svg xmlns="http://www.w3.org/2000/svg" height="48" width="48"><path d="M7.1 36.95q3.1-2.3 4.8-5.725Q13.6 27.8 13.6 24q0-3.85-1.7-7.275Q10.2 13.3 7.1 11q-2.15 2.85-3.25 6.175Q2.75 20.5 2.75 24q0 3.45 1.1 6.775T7.1 36.95Zm16.9 8.3q3.6 0 7.175-1.175Q34.75 42.9 37.5 40.45q-3.75-3-5.85-7.325-2.1-4.325-2.1-9.125 0-4.85 2.1-9.15 2.1-4.3 5.85-7.35-2.75-2.4-6.325-3.6Q27.6 2.7 24 2.7q-3.6 0-7.15 1.2-3.55 1.2-6.35 3.6 3.8 3.05 5.875 7.35T18.45 24q0 4.8-2.075 9.125T10.5 40.45q2.8 2.45 6.35 3.625Q20.4 45.25 24 45.25Zm16.9-8.3q2.15-2.85 3.275-6.175Q45.3 27.45 45.3 24q0-3.5-1.125-6.825T40.9 11q-3.1 2.3-4.775 5.725Q34.45 20.15 34.45 24q0 3.8 1.675 7.225T40.9 36.95Z"/></svg>

<?xml version="1.0" encoding="UTF-8" standalone="no"?>
<svg
   height="48"
   width="48"
   version="1.1"
   id="svg55"
   sodipodi:docname="baseball.svg"
   inkscape:version="1.2.1 (9c6d41e410, 2022-07-14)"
   xmlns:inkscape="http://www.inkscape.org/namespaces/inkscape"
   xmlns:sodipodi="http://sodipodi.sourceforge.net/DTD/sodipodi-0.dtd"
   xmlns="http://www.w3.org/2000/svg"
   xmlns:svg="http://www.w3.org/2000/svg">
  <defs
     id="defs59" />
  <sodipodi:namedview
     id="namedview57"
     pagecolor="#505050"
     bordercolor="#eeeeee"
     borderopacity="1"
     inkscape:showpageshadow="0"
     inkscape:pageopacity="0"
     inkscape:pagecheckerboard="0"
     inkscape:deskcolor="#505050"
     showgrid="false"
     inkscape:zoom="4.9166667"
     inkscape:cx="24"
     inkscape:cy="24.101695"
     inkscape:window-width="1500"
     inkscape:window-height="930"
     inkscape:window-x="-6"
     inkscape:window-y="-6"
     inkscape:window-maximized="1"
     inkscape:current-layer="svg55" />
  <path
     id="path53"
     d="m 7.1,36.95 q 3.1,-2.3 4.8,-5.725 Q 13.6,27.8 13.6,24 13.6,20.15 11.9,16.725 10.2,13.3 7.1,11 4.95,13.85 3.85,17.175 2.75,20.5 2.75,24 q 0,3.45 1.1,6.775 1.1,3.325 3.25,6.175 z m 16.9,8.3 q 3.6,0 7.175,-1.175 Q 34.75,42.9 37.5,40.45 33.75,37.45 31.65,33.125 29.55,28.8 29.55,24 q 0,-4.85 2.1,-9.15 2.1,-4.3 5.85,-7.35 Q 34.75,5.1 31.175,3.9 27.6,2.7 24,2.7 q -3.6,0 -7.15,1.2 -3.55,1.2 -6.35,3.6 3.8,3.05 5.875,7.35 2.075,4.3 2.075,9.15 0,4.8 -2.075,9.125 Q 14.3,37.45 10.5,40.45 13.3,42.9 16.85,44.075 20.4,45.25 24,45.25 Z m 16.9,-8.3 Q 43.05,34.1 44.175,30.775 45.3,27.45 45.3,24 45.3,20.5 44.175,17.175 43.05,13.85 40.9,11 37.8,13.3 36.125,16.725 34.45,20.15 34.45,24 q 0,3.8 1.675,7.225 1.675,3.425 4.775,5.725 z" />
</svg>
